X: 7
% Old value - X: 1
T: The Connachtman's Rambles
R: jig
M: 6/8
L: 1/8
K: D
K: Bm
AG|"D":FA(A d)AA|({B2d}"G"BAB) dA(G|"D"F)A(A d)fe|"G"ed(B{c}) BAG|
"D"FA(A d)AA|"G"BA(B "D"d)ef|"Em"gfe "D"(f2e)|1"G"dB(B{c} B)AG:|2 "G"dBB B3||
|:"Bm"fbb fa(a|f)ef "G"de(g|"Bm"f)bb fa(a|f)ed 
"A7"(e2g| "Bm"f)bb fa(a|"D"f)ef "Bm"de(f|"Em"g)fe "D"dfe
|1 "G"dBB B2g:|2 "G"dBB ({c}B)AG|| "G"D"Tune end"BB{c}B3||

